X:341
T:34. HORNPIPES (16 bars)
T:Hunt the Hare (2A, 1B)
M:4/4
K:D
"D"d2 D2 F>G A2|"G"B2e>d "A7"c>B (3ABc|"D"d2 D2 F>G A2|\
[1 "G"B2 "A7"e>c "D"d4:|[2 "G"B2"A7"e>c "D"d3|
e|\
"D"f>ed>e f>ed>e|f>ef>g f>e d2|"A"e2 c>d e2 f2|g2 f2 "A7"e2 (3ABc|
"D"d2 D2 F>G A2|"G"B2e>d "A7"c>B (3ABc|"D"d2 D2 F>G A2|"G"B2"A7"e>c "D"d4||
